tools/download-figma-icons/icons/outlined-large/battery-inactive.svg

<svg width="64" height="64" viewBox="0 0 64 64" fill="none" xmlns="http://www.w3.org/2000/svg">
<path fill-rule="evenodd" clip-rule="evenodd" d="M15.0016 11.5C15.0016 10.12 16.1215 9 17.5014 9H23.0009V3.5C23.0009 3.22 23.2208 3 23.5008 3H40.4992C40.7792 3 40.9991 3.22 40.9991 3.5V9H46.4986C47.0885 9 47.6385 9.21 48.0685 9.56L50.1982 7.43C49.2183 6.54 47.9185 6 46.4986 6H43.9988V3.5C43.9988 1.57 42.429 0 40.4992 0H23.5008C21.571 0 20.0012 1.57 20.0012 3.5V6H17.5014C14.4717 6 12.0019 8.47 12.0019 11.5V45.63L15.0016 42.63V11.5ZM48.9984 58.5C48.9984 59.88 47.8785 61 46.4986 61H17.5014C16.1215 61 15.0016 59.88 15.0016 58.5V51.12L48.9984 17.12V58.5ZM57.5575 6.44C56.9676 5.85 56.0277 5.85 55.4377 6.44L51.8081 10.07L48.9984 12.87V12.88L15.0016 46.88L12.0019 49.87V49.88L6.44246 55.44C5.85251 56.03 5.85251 56.97 6.44246 57.56C6.73243 57.85 7.12239 58 7.50236 58C7.88232 58 8.27228 57.85 8.56225 57.56L12.0019 54.12V58.5C12.0019 61.53 14.4717 64 17.5014 64H46.4986C49.5283 64 51.9981 61.53 51.9981 58.5V14.12L57.5575 8.56C58.1475 7.97 58.1475 7.03 57.5575 6.44Z" fill="black"/>
</svg>

<svg xmlns="http://www.w3.org/2000/svg" width="64" height="64" fill="none" viewBox="0 0 64 64"><path fill="currentColor" fill-rule="evenodd" d="M15.002 11.5a2.5 2.5 0 0 1 2.5-2.5H23V3.5c0-.28.22-.5.5-.5h16.998c.28 0 .5.22.5.5V9h5.5c.59 0 1.14.21 1.57.56l2.13-2.13a5.5 5.5 0 0 0-3.7-1.43h-2.5V3.5c0-1.93-1.57-3.5-3.5-3.5H23.501A3.504 3.504 0 0 0 20 3.5V6h-2.5a5.51 5.51 0 0 0-5.5 5.5v34.13l3-3zm33.996 47a2.5 2.5 0 0 1-2.5 2.5H17.502a2.5 2.5 0 0 1-2.5-2.5v-7.38l33.997-34zm8.56-52.06a1.49 1.49 0 0 0-2.12 0l-3.63 3.63-2.81 2.8v.01l-33.996 34-3 2.99v.01l-5.56 5.56a1.49 1.49 0 0 0 0 2.12c.29.29.68.44 1.06.44s.77-.15 1.06-.44l3.44-3.44v4.38c0 3.03 2.47 5.5 5.5 5.5h28.997c3.03 0 5.5-2.47 5.5-5.5V14.12l5.558-5.56c.59-.59.59-1.53 0-2.12" clip-rule="evenodd"/></svg>
